assets/icon-recycle.svg

<svg
  class="icon icon-accordion icon-recycle"

  focusable="false"
  xmlns="http://www.w3.org/2000/svg"


  viewBox="0 0 20 20"
>
  <path d="M10.7058 0.549946C11.0066 0.550342 11.3069 0.550737 11.5727 0.54775C12.6717 0.535401 13.4169 1.32825 13.7106 1.83393L15.3904 4.63773L16.1669 4.22927C16.3476 4.13421 16.5679 4.15856 16.7235 4.29078C16.879 4.42299 16.9386 4.63651 16.8739 4.83016L15.5307 8.85205C15.45 9.09376 15.2004 9.23609 14.9512 9.18246L10.5904 8.24369C10.3905 8.20066 10.2369 8.04021 10.2027 7.8386C10.1684 7.63698 10.2604 7.43484 10.4349 7.32822L11.3466 6.77121L10.491 5.35356L9.16947 7.63949C9.0331 7.87537 8.73297 7.95865 8.49456 7.82675L5.46517 6.15084C5.34568 6.08474 5.25843 5.97265 5.22367 5.8406C5.18892 5.70854 5.20968 5.56802 5.28114 5.45166C5.75753 4.67599 6.64634 3.14684 7.2264 2.14351C7.52092 1.63407 7.80943 1.26638 8.12347 1.01328C8.44922 0.750745 8.77858 0.630664 9.11576 0.579998C9.12637 0.578405 9.13702 0.577153 9.14771 0.576245C9.4761 0.548329 10.0919 0.549139 10.7058 0.549946ZM10.925 4.13746L12.4598 6.68024C12.6019 6.91575 12.5271 7.22186 12.2924 7.36528L12.0238 7.52936L14.724 8.11064L15.5313 5.69358L15.4374 5.74295C15.2026 5.8665 14.9121 5.78506 14.7757 5.55742L12.8469 2.33802C12.6459 1.99038 12.1756 1.54104 11.584 1.54769C11.2714 1.5512 10.9415 1.55066 10.6262 1.55014C10.059 1.54921 9.53863 1.54836 9.24893 1.5713C9.06973 1.60012 8.91602 1.65888 8.75098 1.79189C8.72575 1.81222 8.69986 1.83462 8.67329 1.85932C9.41082 2.17381 10.3422 2.86027 10.925 4.13746ZM8.06135 2.69724C7.58009 3.52944 6.89514 4.70818 6.40422 5.52752L8.5493 6.71421L9.91606 4.35001C9.36655 3.30179 8.53989 2.84656 8.06135 2.69724Z" />
  <path d="M18.8984 16.3552C18.7447 16.6138 18.5913 16.872 18.4584 17.1022C17.909 18.0541 16.847 18.2912 16.2622 18.2861L12.9938 18.3026L12.9496 19.1788C12.9393 19.3827 12.806 19.5598 12.613 19.6263C12.4199 19.6928 12.2059 19.6352 12.0722 19.4809L9.29638 16.2755C9.12955 16.0828 9.1343 15.7955 9.30742 15.6085L12.3375 12.3349C12.4764 12.1848 12.6927 12.1345 12.8837 12.2078C13.0746 12.2811 13.2016 12.4632 13.2044 12.6677L13.219 13.736L14.8748 13.7223L13.5815 11.4203C13.4481 11.1827 13.5294 10.8821 13.7644 10.7442L16.7502 8.99179C16.8679 8.92267 17.0089 8.90473 17.1402 8.94212C17.2715 8.97951 17.3818 9.06899 17.4455 9.18978C17.8701 9.99496 18.7328 11.539 19.3005 12.5494C19.5887 13.0624 19.758 13.498 19.8157 13.8972C19.8756 14.3113 19.8111 14.6559 19.6828 14.9718C19.6788 14.9817 19.6745 14.9916 19.6698 15.0012C19.5264 15.298 19.2119 15.8274 18.8984 16.3552ZM15.7 14.7155L12.73 14.7401C12.455 14.7424 12.2297 14.522 12.2259 14.247L12.2216 13.9323L10.3454 15.9593L12.0136 17.8856L12.019 17.7797C12.0324 17.5147 12.2505 17.3063 12.5158 17.3049L16.2688 17.2861C16.6703 17.2904 17.2966 17.1147 17.5924 16.6023C17.7487 16.3315 17.9172 16.048 18.0784 15.7769C18.3682 15.2895 18.6342 14.8421 18.7621 14.5812C18.8286 14.4123 18.8564 14.2501 18.826 14.0403C18.8214 14.0083 18.8153 13.9746 18.8076 13.9391C18.1612 14.4134 17.0959 14.8649 15.7 14.7155ZM18.3985 12.9856C17.9278 12.1474 17.2627 10.9574 16.8079 10.1174L14.6937 11.3582L16.0313 13.7391C17.2132 13.8005 18.0262 13.3212 18.3985 12.9856Z" />
  <path d="M1.15621 15.7354C1.00906 15.473 0.862139 15.2111 0.729208 14.9809C0.179617 14.0291 0.505229 12.9909 0.801973 12.487L2.42199 9.6482L1.68529 9.17176C1.51385 9.06089 1.42705 8.85692 1.466 8.65651C1.50496 8.4561 1.66185 8.2995 1.86233 8.26092L6.0262 7.45965C6.27645 7.4115 6.52288 7.55926 6.59829 7.80269L7.91826 12.0636C7.97877 12.259 7.91423 12.4715 7.7553 12.6002C7.59636 12.7289 7.37508 12.7478 7.1966 12.648L6.26413 12.1265L5.4481 13.5673L8.08835 13.5983C8.3608 13.6015 8.58054 13.8222 8.58248 14.0947L8.60717 17.5567C8.60815 17.6932 8.55323 17.8242 8.45518 17.9193C8.35714 18.0143 8.22448 18.0651 8.08803 18.0599C7.17842 18.025 5.4099 18.0001 4.25104 17.9865C3.66263 17.9796 3.20071 17.9084 2.82615 17.7588C2.43762 17.6036 2.17147 17.3755 1.96199 17.1064C1.9554 17.098 1.94909 17.0893 1.94306 17.0804C1.75771 16.8079 1.45648 16.2708 1.15621 15.7354ZM4.1754 13.7853L5.63906 11.201C5.77463 10.9616 6.07809 10.8767 6.31818 11.011L6.59287 11.1646L5.77555 8.52624L3.27316 9.00778L3.36221 9.06537C3.58504 9.20948 3.65648 9.50256 3.52495 9.73304L1.66481 12.9926C1.46034 13.3382 1.29934 13.9685 1.59519 14.4808C1.75154 14.7515 1.91278 15.0392 2.06695 15.3144C2.34421 15.8091 2.59863 16.2631 2.76066 16.5043C2.87365 16.6464 3.00022 16.7515 3.19707 16.8302C3.22716 16.8422 3.25937 16.8538 3.29393 16.8648C3.20641 16.0678 3.34805 14.9195 4.1754 13.7853ZM4.32426 16.9873C5.28553 16.9987 6.6487 17.0177 7.60349 17.0439L7.586 14.5925L4.85535 14.5605C4.2112 15.5533 4.21977 16.497 4.32426 16.9873Z" />
</svg>

<svg xmlns="http://www.w3.org/2000/svg" class="icon icon-accordion icon-recycle" viewBox="0 0 20 20"><path d="M10.706.55c.3 0 .6 0 .867-.002 1.099-.013 1.844.78 2.138 1.286l1.68 2.804.776-.409a.5.5 0 0 1 .707.601L15.53 8.852a.5.5 0 0 1-.58.33l-4.36-.938a.5.5 0 0 1-.156-.916l.912-.557-.856-1.417-1.322 2.285a.5.5 0 0 1-.674.188L5.465 6.15a.5.5 0 0 1-.184-.7c.477-.775 1.365-2.304 1.945-3.307.295-.51.583-.878.897-1.13A2 2 0 0 1 9.148.575c.328-.028.944-.027 1.558-.026m.219 3.587L12.46 6.68a.5.5 0 0 1-.168.685l-.268.164 2.7.582.807-2.417-.094.049a.5.5 0 0 1-.661-.186l-1.93-3.219c-.2-.348-.67-.797-1.262-.79a76 76 0 0 1-.958.002c-.567 0-1.087-.002-1.377.021a1 1 0 0 0-.498.22l-.078.068c.738.315 1.67 1.001 2.252 2.278m-2.864-1.44c-.48.832-1.166 2.011-1.657 2.83L8.55 6.715 9.916 4.35c-.55-1.048-1.376-1.503-1.855-1.653M18.898 16.355c-.153.259-.307.517-.44.747-.549.952-1.611 1.19-2.196 1.184l-3.268.017-.044.876a.5.5 0 0 1-.878.302l-2.776-3.206a.5.5 0 0 1 .011-.666l3.03-3.274a.5.5 0 0 1 .867.333l.015 1.068 1.656-.014-1.293-2.302a.5.5 0 0 1 .182-.676l2.986-1.752a.5.5 0 0 1 .695.198c.425.805 1.288 2.349 1.855 3.36.289.512.458.948.516 1.347a2 2 0 0 1-.146 1.104c-.144.297-.458.826-.772 1.354m-3.198-1.64-2.97.025a.5.5 0 0 1-.504-.493l-.004-.315-1.877 2.027 1.669 1.927.005-.106a.5.5 0 0 1 .497-.475l3.753-.019c.401.004 1.028-.171 1.323-.684.157-.27.325-.554.486-.825.29-.487.556-.935.684-1.196a1 1 0 0 0 .064-.54l-.018-.102c-.647.474-1.712.926-3.108.777m2.698-1.73a243 243 0 0 1-1.59-2.868l-2.114 1.241 1.337 2.381c1.182.061 1.995-.418 2.367-.753M1.156 15.735a72 72 0 0 0-.427-.754c-.55-.952-.224-1.99.073-2.494l1.62-2.839-.737-.476a.5.5 0 0 1 .177-.911l4.164-.801a.5.5 0 0 1 .572.343l1.32 4.26a.5.5 0 0 1-.721.585l-.933-.521-.816 1.44 2.64.031a.5.5 0 0 1 .494.497l.025 3.462a.5.5 0 0 1-.519.503c-.91-.035-2.678-.06-3.837-.073-.588-.007-1.05-.079-1.425-.228a2 2 0 0 1-.883-.679c-.185-.272-.487-.81-.787-1.345m3.02-1.95 1.463-2.584a.5.5 0 0 1 .68-.19l.274.154-.817-2.639-2.503.482.09.057a.5.5 0 0 1 .162.668l-1.86 3.26c-.205.345-.366.976-.07 1.488.157.27.318.558.472.833.277.495.532.95.694 1.19.113.142.24.247.436.326q.045.018.097.035c-.088-.797.054-1.945.881-3.08m.148 3.202c.962.012 2.325.03 3.28.057l-.018-2.452-2.73-.032c-.645.993-.636 1.937-.532 2.427"/></svg>
